;FLAVOR:Marlin
;TIME:290
;Filament used: 0.121145m
;Layer height: 0.2
;MINX:111.835
;MINY:112.7
;MINZ:0.2
;MAXX:123.165
;MAXY:123.165
;MAXZ:10
;TARGET_MACHINE.NAME:Creality Ender-3
;Generated with Cura_SteamEngine 5.8.1
M140 S50
M105
M190 S50
M104 S200
M105
M109 S200
M82 ;absolute extrusion mode
; Ender 3 Custom Start G-code
G92 E0 ; Reset Extruder
G28 ; Home all axes
G1 Z2.0 F3000 ; Move Z Axis up little to prevent scratching of Heat Bed
G1 X0.1 Y20 Z0.3 F5000.0 ; Move to start position
G1 X0.1 Y200.0 Z0.3 F1500.0 E15 ; Draw the first line
G1 X0.4 Y200.0 Z0.3 F5000.0 ; Move to side a little
G1 X0.4 Y20 Z0.3 F1500.0 E30 ; Draw the second line
G92 E0 ; Reset Extruder
G1 Z2.0 F3000 ; Move Z Axis up little to prevent scratching of Heat Bed
G1 X5 Y20 Z0.3 F5000.0 ; Move over to prevent blob squish
G92 E0
G92 E0
G1 F2700 E-5
;LAYER_COUNT:50
;LAYER:0
M107
;MESH:cube.STL
G0 F6000 X117.5 Y122.3 Z0.2
;TYPE:WALL-OUTER
G1 F2700 E0
G1 F1200 X112.7 Y122.3 E0.15965
G1 X112.7 Y112.7 E0.47895
G1 X122.3 Y112.7 E0.79824
G1 X122.3 Y122.3 E1.11754
G1 X117.5 Y122.3 E1.27719
G0 F6000 X117.5 Y121.94
;TYPE:SKIN
G1 F1200 X113.06 Y121.94 E1.42486
G1 X113.06 Y113.06 E1.72021
G1 X121.94 Y113.06 E2.01556
G1 X121.94 Y121.94 E2.31091
G1 X117.5 Y121.94 E2.45859
G1 F2700 E-2.54141
G0 F6000 X117.5 Y123.165
G0 X111.847 Y123.153
G0 X111.835 Y121.18
G0 X113.26 Y121.18
G1 F2700 E2.45859
G1 F1200 X113.82 Y121.74 E2.48493
G0 F6000 X114.386 Y121.74
G1 F1200 X113.26 Y120.614 E2.53789
G0 F6000 X113.26 Y120.048
G1 F1200 X114.952 Y121.74 E2.61748
G0 F6000 X115.517 Y121.74
G1 F1200 X113.26 Y119.483 E2.72364
G0 F6000 X113.26 Y118.917
G1 F1200 X116.083 Y121.74 E2.85643
G0 F6000 X116.649 Y121.74
G1 F1200 X113.26 Y118.351 E3.01584
G0 F6000 X113.26 Y117.786
G1 F1200 X117.214 Y121.74 E3.20182
G0 F6000 X117.78 Y121.74
G1 F1200 X113.26 Y117.22 E3.41443
G0 F6000 X113.26 Y116.654
G1 F1200 X118.346 Y121.74 E3.65366
G0 F6000 X118.911 Y121.74
G1 F1200 X113.26 Y116.089 E3.91946
G0 F6000 X113.26 Y115.523
G1 F1200 X119.477 Y121.74 E4.21189
G0 F6000 X120.043 Y121.74
G1 F1200 X113.26 Y114.957 E4.53094
G0 F6000 X113.26 Y114.391
G1 F1200 X120.608 Y121.74 E4.87659
G0 F6000 X121.174 Y121.74
G1 F1200 X113.26 Y113.826 E5.24884
G0 F6000 X113.26 Y113.26
G1 F1200 X121.74 Y121.74 E5.64772
G0 F6000 X121.74 Y121.174
G1 F1200 X113.826 Y113.26 E6.01997
G0 F6000 X114.391 Y113.26
G1 F1200 X121.74 Y120.608 E6.36562
G0 F6000 X121.74 Y120.043
G1 F1200 X114.957 Y113.26 E6.68467
G0 F6000 X115.523 Y113.26
G1 F1200 X121.74 Y119.477 E6.9771
G0 F6000 X121.74 Y118.911
G1 F1200 X116.089 Y113.26 E7.2429
G0 F6000 X116.654 Y113.26
G1 F1200 X121.74 Y118.346 E7.48213
G0 F6000 X121.74 Y117.78
G1 F1200 X117.22 Y113.26 E7.69474
G0 F6000 X117.786 Y113.26
G1 F1200 X121.74 Y117.214 E7.88072
G0 F6000 X121.74 Y116.649
G1 F1200 X118.351 Y113.26 E8.04013
G0 F6000 X118.917 Y113.26
G1 F1200 X121.74 Y116.083 E8.17292
G0 F6000 X121.74 Y115.517
G1 F1200 X119.483 Y113.26 E8.27908
G0 F6000 X120.048 Y113.26
G1 F1200 X121.74 Y114.952 E8.35867
G0 F6000 X121.74 Y114.386
G1 F1200 X120.614 Y113.26 E8.41163
G0 F6000 X121.18 Y113.26
G1 F1200 X121.74 Y113.82 E8.43797
G1 F2700 E3.43797
;MESH:NONMESH
G0 F300 X121.74 Y113.82 Z0.4
G0 F6000 X123.165 Y113.82
G0 X123.153 Y123.153
G0 X117.5 Y123.165
G0 X117.5 Y122.3
;TIME_ELAPSED:20.969703
;LAYER:1
;note -- min layer time used
M106 S85
;TYPE:WALL-OUTER
;MESH:cube.STL
G1 F2700 E8.43797
G1 F1568.9 X112.7 Y122.3 E8.59762
G1 X112.7 Y112.7 E8.91692
G1 X122.3 Y112.7 E9.23621
G1 X122.3 Y122.3 E9.55551
G1 X117.5 Y122.3 E9.71516
G0 F10500 X117.5 Y121.94
;TYPE:SKIN
G1 F1568.9 X113.06 Y121.94 E9.86284
G1 X113.06 Y113.06 E10.15819
G1 X121.94 Y113.06 E10.45354
G1 X121.94 Y121.94 E10.74889
G1 X117.5 Y121.94 E10.89656
G1 F2700 E5.89656
G0 F10500 X117.5 Y123.165
G0 X121.505 Y123.165
G0 X121.505 Y121.74
G1 F2700 E10.89656
G1 F1568.9 X121.74 Y121.505 E10.90761
G0 F10500 X121.74 Y120.939
G1 F1568.9 X120.939 Y121.74 E10.94529
G0 F10500 X120.374 Y121.74
G1 F1568.9 X121.74 Y120.374 E11.00954
G0 F10500 X121.74 Y119.808
G1 F1568.9 X119.808 Y121.74 E11.10042
G0 F10500 X119.242 Y121.74
G1 F1568.9 X121.74 Y119.242 E11.21792
G0 F10500 X121.74 Y118.677
G1 F1568.9 X118.677 Y121.74 E11.36199
G0 F10500 X118.111 Y121.74
G1 F1568.9 X121.74 Y118.111 E11.53269
G0 F10500 X121.74 Y117.545
G1 F1568.9 X117.545 Y121.74 E11.73001
G0 F10500 X116.98 Y121.74
G1 F1568.9 X121.74 Y116.98 E11.9539
G0 F10500 X121.74 Y116.414
G1 F1568.9 X116.414 Y121.74 E12.20442
G0 F10500 X115.848 Y121.74
G1 F1568.9 X121.74 Y115.848 E12.48156
G0 F10500 X121.74 Y115.282
G1 F1568.9 X115.282 Y121.74 E12.78533
G0 F10500 X114.717 Y121.74
G1 F1568.9 X121.74 Y114.717 E13.11567
G0 F10500 X121.74 Y114.151
G1 F1568.9 X114.151 Y121.74 E13.47263
G0 F10500 X113.585 Y121.74
G1 F1568.9 X121.74 Y113.585 E13.85622
G0 F10500 X121.499 Y113.26
G1 F1568.9 X113.26 Y121.499 E14.24376
G0 F10500 X113.26 Y120.934
G1 F1568.9 X120.934 Y113.26 E14.60472
G0 F10500 X120.368 Y113.26
G1 F1568.9 X113.26 Y120.368 E14.93906
G0 F10500 X113.26 Y119.802
G1 F1568.9 X119.802 Y113.26 E15.24677
G0 F10500 X119.237 Y113.26
G1 F1568.9 X113.26 Y119.237 E15.52791
G0 F10500 X113.26 Y118.671
G1 F1568.9 X118.671 Y113.26 E15.78243
G0 F10500 X118.105 Y113.26
G1 F1568.9 X113.26 Y118.105 E16.01032
G0 F10500 X113.26 Y117.54
G1 F1568.9 X117.54 Y113.26 E16.21164
G0 F10500 X116.974 Y113.26
G1 F1568.9 X113.26 Y116.974 E16.38634
G0 F10500 X113.26 Y116.408
G1 F1568.9 X116.408 Y113.26 E16.53441
G0 F10500 X115.842 Y113.26
G1 F1568.9 X113.26 Y115.842 E16.65586
G0 F10500 X113.26 Y115.277
G1 F1568.9 X115.277 Y113.26 E16.75073
G0 F10500 X114.711 Y113.26
G1 F1568.9 X113.26 Y114.711 E16.81898
G0 F10500 X113.26 Y114.145
G1 F1568.9 X114.145 Y113.26 E16.86061
G0 F10500 X113.58 Y113.26
G1 F1568.9 X113.26 Y113.58 E16.87566
G1 F2700 E11.87566
;MESH:NONMESH
G0 F300 X113.26 Y113.58 Z0.6
G0 F10500 X111.835 Y113.58
G0 X111.847 Y123.153
G0 X117.5 Y123.165
G0 X117.5 Y122.3
;TIME_ELAPSED:35.142204
;LAYER:2
;note -- min layer time used
M106 S170
;TYPE:WALL-OUTER
;MESH:cube.STL
G1 F2700 E16.87566
G1 F1562.1 X112.7 Y122.3 E17.03531
G1 X112.7 Y112.7 E17.35461
G1 X122.3 Y112.7 E17.6739
G1 X122.3 Y122.3 E17.9932
G1 X117.5 Y122.3 E18.15285
G0 F15000 X117.5 Y121.94
;TYPE:SKIN
G1 F1562.1 X113.06 Y121.94 E18.30052
G1 X113.06 Y113.06 E18.59587
G1 X121.94 Y113.06 E18.89122
G1 X121.94 Y121.94 E19.18657
G1 X117.5 Y121.94 E19.33425
G1 F2700 E14.33425
G0 F15000 X117.5 Y123.165
G0 X111.847 Y123.153
G0 X111.835 Y121.18
G0 X113.26 Y121.18
G1 F2700 E19.33425
G1 F1562.1 X113.82 Y121.74 E19.36059
G0 F15000 X114.386 Y121.74
G1 F1562.1 X113.26 Y120.614 E19.41355
G0 F15000 X113.26 Y120.048
G1 F1562.1 X114.952 Y121.74 E19.49314
G0 F15000 X115.517 Y121.74
G1 F1562.1 X113.26 Y119.483 E19.5993
G0 F15000 X113.26 Y118.917
G1 F1562.1 X116.083 Y121.74 E19.73209
G0 F15000 X116.649 Y121.74
G1 F1562.1 X113.26 Y118.351 E19.8915
G0 F15000 X113.26 Y117.786
G1 F1562.1 X117.214 Y121.74 E20.07748
G0 F15000 X117.78 Y121.74
G1 F1562.1 X113.26 Y117.22 E20.29009
G0 F15000 X113.26 Y116.654
G1 F1562.1 X118.346 Y121.74 E20.52932
G0 F15000 X118.911 Y121.74
G1 F1562.1 X113.26 Y116.089 E20.79512
G0 F15000 X113.26 Y115.523
G1 F1562.1 X119.477 Y121.74 E21.08755
G0 F15000 X120.043 Y121.74
G1 F1562.1 X113.26 Y114.957 E21.4066
G0 F15000 X113.26 Y114.391
G1 F1562.1 X120.608 Y121.74 E21.75225
G0 F15000 X121.174 Y121.74
G1 F1562.1 X113.26 Y113.826 E22.1245
G0 F15000 X113.26 Y113.26
G1 F1562.1 X121.74 Y121.74 E22.52338
G0 F15000 X121.74 Y121.174
G1 F1562.1 X113.826 Y113.26 E22.89563
G0 F15000 X114.391 Y113.26
G1 F1562.1 X121.74 Y120.608 E23.24128
G0 F15000 X121.74 Y120.043
G1 F1562.1 X114.957 Y113.26 E23.56033
G0 F15000 X115.523 Y113.26
G1 F1562.1 X121.74 Y119.477 E23.85276
G0 F15000 X121.74 Y118.911
G1 F1562.1 X116.089 Y113.26 E24.11856
G0 F15000 X116.654 Y113.26
G1 F1562.1 X121.74 Y118.346 E24.35779
G0 F15000 X121.74 Y117.78
G1 F1562.1 X117.22 Y113.26 E24.5704
G0 F15000 X117.786 Y113.26
G1 F1562.1 X121.74 Y117.214 E24.75639
G0 F15000 X121.74 Y116.649
G1 F1562.1 X118.351 Y113.26 E24.91579
G0 F15000 X118.917 Y113.26
G1 F1562.1 X121.74 Y116.083 E25.04858
G0 F15000 X121.74 Y115.517
G1 F1562.1 X119.483 Y113.26 E25.15474
G0 F15000 X120.048 Y113.26
G1 F1562.1 X121.74 Y114.952 E25.23433
G0 F15000 X121.74 Y114.386
G1 F1562.1 X120.614 Y113.26 E25.28729
G0 F15000 X121.18 Y113.26
G1 F1562.1 X121.74 Y113.82 E25.31363
G1 F2700 E20.31363
;MESH:NONMESH
G0 F300 X121.74 Y113.82 Z0.8
G0 F15000 X123.165 Y113.82
G0 X123.153 Y123.153
G0 X117.5 Y123.165
G0 X117.5 Y122.3
;TIME_ELAPSED:49.472115
;LAYER:3
;note -- min layer time used
M106 S255
;TYPE:WALL-OUTER
;MESH:cube.STL
G1 F2700 E25.31363
G1 F1559.9 X112.7 Y122.3 E25.47328
G1 X112.7 Y112.7 E25.79258
G1 X122.3 Y112.7 E26.11187
G1 X122.3 Y122.3 E26.43117
G1 X117.5 Y122.3 E26.59082
G0 F15000 X117.5 Y121.94
;TYPE:SKIN
G1 F1559.9 X113.06 Y121.94 E26.7385
G1 X113.06 Y113.06 E27.03385
G1 X121.94 Y113.06 E27.3292
G1 X121.94 Y121.94 E27.62455
G1 X117.5 Y121.94 E27.77222
G1 F2700 E22.77222
G0 F15000 X117.5 Y123.165
G0 X121.505 Y123.165
G0 X121.505 Y121.74
G1 F2700 E27.77222
G1 F1559.9 X121.74 Y121.505 E27.78327
G0 F15000 X121.74 Y120.939
G1 F1559.9 X120.939 Y121.74 E27.82095
G0 F15000 X120.374 Y121.74
G1 F1559.9 X121.74 Y120.374 E27.8852
G0 F15000 X121.74 Y119.808
G1 F1559.9 X119.808 Y121.74 E27.97608
G0 F15000 X119.242 Y121.74
G1 F1559.9 X121.74 Y119.242 E28.09358
G0 F15000 X121.74 Y118.677
G1 F1559.9 X118.677 Y121.74 E28.23765
G0 F15000 X118.111 Y121.74
G1 F1559.9 X121.74 Y118.111 E28.40835
G0 F15000 X121.74 Y117.545
G1 F1559.9 X117.545 Y121.74 E28.60567
G0 F15000 X116.98 Y121.74
G1 F1559.9 X121.74 Y116.98 E28.82956
G0 F15000 X121.74 Y116.414
G1 F1559.9 X116.414 Y121.74 E29.08008
G0 F15000 X115.848 Y121.74
G1 F1559.9 X121.74 Y115.848 E29.35722
G0 F15000 X121.74 Y115.282
G1 F1559.9 X115.282 Y121.74 E29.66099
G0 F15000 X114.717 Y121.74
G1 F1559.9 X121.74 Y114.717 E29.99133
G0 F15000 X121.74 Y114.151
G1 F1559.9 X114.151 Y121.74 E30.34829
G0 F15000 X113.585 Y121.74
G1 F1559.9 X121.74 Y113.585 E30.73188
G0 F15000 X121.499 Y113.26
G1 F1559.9 X113.26 Y121.499 E31.11942
G0 F15000 X113.26 Y120.934
G1 F1559.9 X120.934 Y113.26 E31.48038
G0 F15000 X120.368 Y113.26
G1 F1559.9 X113.26 Y120.368 E31.81472
G0 F15000 X113.26 Y119.802
G1 F1559.9 X119.802 Y113.26 E32.12243
G0 F15000 X119.237 Y113.26
G1 F1559.9 X113.26 Y119.237 E32.40357
G0 F15000 X113.26 Y118.671
G1 F1559.9 X118.671 Y113.26 E32.65809
G0 F15000 X118.105 Y113.26
G1 F1559.9 X113.26 Y118.105 E32.88598
G0 F15000 X113.26 Y117.54
G1 F1559.9 X117.54 Y113.26 E33.0873
G0 F15000 X116.974 Y113.26
G1 F1559.9 X113.26 Y116.974 E33.262
G0 F15000 X113.26 Y116.408
G1 F1559.9 X116.408 Y113.26 E33.41007
G0 F15000 X115.842 Y113.26
G1 F1559.9 X113.26 Y115.842 E33.53152
G0 F15000 X113.26 Y115.277
G1 F1559.9 X115.277 Y113.26 E33.62639
G0 F15000 X114.711 Y113.26
G1 F1559.9 X113.26 Y114.711 E33.69464
G0 F15000 X113.26 Y114.145
G1 F1559.9 X114.145 Y113.26 E33.73627
G0 F15000 X113.58 Y113.26
G1 F1559.9 X113.26 Y113.58 E33.75132
G1 F2700 E28.75132
;MESH:NONMESH
G0 F300 X113.26 Y113.58 Z1
G0 F15000 X111.835 Y113.58
G0 X111.847 Y123.153
G0 X117.5 Y123.165
G0 X117.5 Y122.3
;TIME_ELAPSED:63.744576
;LAYER:4
;note -- min layer time used
;TYPE:WALL-OUTER
;MESH:cube.STL
G1 F2700 E33.75132
G1 F600 X112.7 Y122.3 E33.91097
G1 X112.7 Y112.7 E34.23027
G1 X122.3 Y112.7 E34.54956
G1 X122.3 Y122.3 E34.86886
G1 X117.5 Y122.3 E35.02851
G0 F15000 X117.5 Y121.3
;MESH:NONMESH
G0 F300 X117.5 Y121.3 Z1.2
G0 F15000 X117.5 Y122.3
;TIME_ELAPSED:68.010278
;LAYER:5
;note -- min layer time used
;TYPE:WALL-OUTER
;MESH:cube.STL
G1 F600 X112.7 Y122.3 E35.18816
G1 X112.7 Y112.7 E35.50746
G1 X122.3 Y112.7 E35.82675
G1 X122.3 Y122.3 E36.14605
G1 X117.5 Y122.3 E36.3057
G0 F15000 X117.5 Y121.3
;MESH:NONMESH
G0 F300 X117.5 Y121.3 Z1.4
G0 F15000 X117.5 Y122.3
;TIME_ELAPSED:72.076554
;LAYER:6
;note -- min layer time used
;TYPE:WALL-OUTER
;MESH:cube.STL
G1 F600 X112.7 Y122.3 E36.46535
G1 X112.7 Y112.7 E36.78464
G1 X122.3 Y112.7 E37.10394
G1 X122.3 Y122.3 E37.42324
G1 X117.5 Y122.3 E37.58289
G0 F15000 X117.5 Y121.3
;MESH:NONMESH
G0 F300 X117.5 Y121.3 Z1.6
G0 F15000 X117.5 Y122.3
;TIME_ELAPSED:76.142831
;LAYER:7
;note -- min layer time used
;TYPE:WALL-OUTER
;MESH:cube.STL
G1 F600 X112.7 Y122.3 E37.74254
G1 X112.7 Y112.7 E38.06183
G1 X122.3 Y112.7 E38.38113
G1 X122.3 Y122.3 E38.70043
G1 X117.5 Y122.3 E38.86008
G0 F15000 X117.5 Y121.3
;MESH:NONMESH
G0 F300 X117.5 Y121.3 Z1.8
G0 F15000 X117.5 Y122.3
;TIME_ELAPSED:80.209107
;LAYER:8
;note -- min layer time used
;TYPE:WALL-OUTER
;MESH:cube.STL
G1 F600 X112.7 Y122.3 E39.01973
G1 X112.7 Y112.7 E39.33902
G1 X122.3 Y112.7 E39.65832
G1 X122.3 Y122.3 E39.97762
G1 X117.5 Y122.3 E40.13727
G0 F15000 X117.5 Y121.3
;MESH:NONMESH
G0 F300 X117.5 Y121.3 Z2
G0 F15000 X117.5 Y122.3
;TIME_ELAPSED:84.275383
;LAYER:9
;note -- min layer time used
;TYPE:WALL-OUTER
;MESH:cube.STL
G1 F600 X112.7 Y122.3 E40.29692
G1 X112.7 Y112.7 E40.61621
G1 X122.3 Y112.7 E40.93551
G1 X122.3 Y122.3 E41.25481
G1 X117.5 Y122.3 E41.41446
G0 F15000 X117.5 Y121.3
;MESH:NONMESH
G0 F300 X117.5 Y121.3 Z2.2
G0 F15000 X117.5 Y122.3
;TIME_ELAPSED:88.341659
;LAYER:10
;note -- min layer time used
;TYPE:WALL-OUTER
;MESH:cube.STL
G1 F600 X112.7 Y122.3 E41.5741
G1 X112.7 Y112.7 E41.8934
G1 X122.3 Y112.7 E42.2127
G1 X122.3 Y122.3 E42.532
G1 X117.5 Y122.3 E42.69164
G0 F15000 X117.5 Y121.3
;MESH:NONMESH
G0 F300 X117.5 Y121.3 Z2.4
G0 F15000 X117.5 Y122.3
;TIME_ELAPSED:92.407935
;LAYER:11
;note -- min layer time used
;TYPE:WALL-OUTER
;MESH:cube.STL
G1 F600 X112.7 Y122.3 E42.85129
G1 X112.7 Y112.7 E43.17059
G1 X122.3 Y112.7 E43.48989
G1 X122.3 Y122.3 E43.80919
G1 X117.5 Y122.3 E43.96883
G0 F15000 X117.5 Y121.3
;MESH:NONMESH
G0 F300 X117.5 Y121.3 Z2.6
G0 F15000 X117.5 Y122.3
;TIME_ELAPSED:96.474212
;LAYER:12
;note -- min layer time used
;TYPE:WALL-OUTER
;MESH:cube.STL
G1 F600 X112.7 Y122.3 E44.12848
G1 X112.7 Y112.7 E44.44778
G1 X122.3 Y112.7 E44.76708
G1 X122.3 Y122.3 E45.08637
G1 X117.5 Y122.3 E45.24602
G0 F15000 X117.5 Y121.3
;MESH:NONMESH
G0 F300 X117.5 Y121.3 Z2.8
G0 F15000 X117.5 Y122.3
;TIME_ELAPSED:100.540488
;LAYER:13
;note -- min layer time used
;TYPE:WALL-OUTER
;MESH:cube.STL
G1 F600 X112.7 Y122.3 E45.40567
G1 X112.7 Y112.7 E45.72497
G1 X122.3 Y112.7 E46.04427
G1 X122.3 Y122.3 E46.36356
G1 X117.5 Y122.3 E46.52321
G0 F15000 X117.5 Y121.3
;MESH:NONMESH
G0 F300 X117.5 Y121.3 Z3
G0 F15000 X117.5 Y122.3
;TIME_ELAPSED:104.606764
;LAYER:14
;note -- min layer time used
;TYPE:WALL-OUTER
;MESH:cube.STL
G1 F600 X112.7 Y122.3 E46.68286
G1 X112.7 Y112.7 E47.00216
G1 X122.3 Y112.7 E47.32146
G1 X122.3 Y122.3 E47.64075
G1 X117.5 Y122.3 E47.8004
G0 F15000 X117.5 Y121.3
;MESH:NONMESH
G0 F300 X117.5 Y121.3 Z3.2
G0 F15000 X117.5 Y122.3
;TIME_ELAPSED:108.673040
;LAYER:15
;note -- min layer time used
;TYPE:WALL-OUTER
;MESH:cube.STL
G1 F600 X112.7 Y122.3 E47.96005
G1 X112.7 Y112.7 E48.27935
G1 X122.3 Y112.7 E48.59864
G1 X122.3 Y122.3 E48.91794
G1 X117.5 Y122.3 E49.07759
G0 F15000 X117.5 Y121.3
;MESH:NONMESH
G0 F300 X117.5 Y121.3 Z3.4
G0 F15000 X117.5 Y122.3
;TIME_ELAPSED:112.739317
;LAYER:16
;note -- min layer time used
;TYPE:WALL-OUTER
;MESH:cube.STL
G1 F600 X112.7 Y122.3 E49.23724
G1 X112.7 Y112.7 E49.55654
G1 X122.3 Y112.7 E49.87583
G1 X122.3 Y122.3 E50.19513
G1 X117.5 Y122.3 E50.35478
G0 F15000 X117.5 Y121.3
;MESH:NONMESH
G0 F300 X117.5 Y121.3 Z3.6
G0 F15000 X117.5 Y122.3
;TIME_ELAPSED:116.805593
;LAYER:17
;note -- min layer time used
;TYPE:WALL-OUTER
;MESH:cube.STL
G1 F600 X112.7 Y122.3 E50.51443
G1 X112.7 Y112.7 E50.83373
G1 X122.3 Y112.7 E51.15302
G1 X122.3 Y122.3 E51.47232
G1 X117.5 Y122.3 E51.63197
G0 F15000 X117.5 Y121.3
;MESH:NONMESH
G0 F300 X117.5 Y121.3 Z3.8
G0 F15000 X117.5 Y122.3
;TIME_ELAPSED:120.871869
;LAYER:18
;note -- min layer time used
;TYPE:WALL-OUTER
;MESH:cube.STL
G1 F600 X112.7 Y122.3 E51.79162
G1 X112.7 Y112.7 E52.11092
G1 X122.3 Y112.7 E52.43021
G1 X122.3 Y122.3 E52.74951
G1 X117.5 Y122.3 E52.90916
G0 F15000 X117.5 Y121.3
;MESH:NONMESH
G0 F300 X117.5 Y121.3 Z4
G0 F15000 X117.5 Y122.3
;TIME_ELAPSED:124.938145
;LAYER:19
;note -- min layer time used
;TYPE:WALL-OUTER
