;FLAVOR:Marlin
;TIME:351
;Filament used: 0.269222m
;Layer height: 0.2
;MINX:-12.8
;MINY:-12.8
;MINZ:0.3
;MAXX:12.8
;MAXY:12.8
;MAXZ:9.9
;TARGET_MACHINE.NAME:Unknown
;Generated with Cura_SteamEngine 5.8.1
M140 S65
M105
M190 S65
M104 S220
M105
M109 S220
M82 ;absolute extrusion mode
;FLAVOR:Marlin
M82 ;absolute extrusion mode
G21
G90
M82
M107 T0
G28
G92 E0
G0 E3 F200
G92 E0 ; reset extrusion distance
M106 S255 ; Enable cooling fan full speed
G1 X-98 Y0 Z0.4 F3000 ; move to arc start
G3 X0 Y-98 I98 Z0.4 E40 F400 ; lay arc stripe 90deg
G92 E0 ; reset extrusion distance
G4 P500 ; wait for 0.5 sec
G0 Z10 E-1 ; Lift 15mm and retract 1mm filament
G4 P2000 ; wait for 5 sec
G0 Z15
M107 ; Disable cooling fan
G1 X0 Y-85 Z4 E0 F3000 ; get off the bed
G92 E0
G92 E0
G1 F1500 E-6.5
;LAYER_COUNT:49
;LAYER:0
M107
G0 F3600 X12.756 Y-5.642 Z0.3
;TYPE:SKIRT
G1 F1500 E0
G1 X12.8 Y5.615 E0.56162
G1 X12.377 Y7.679 E0.66673
G1 X11.383 Y9.45 E0.76805
G1 X10.61 Y10.448 E0.83103
G1 X9.257 Y11.54 E0.91778
G1 X7.278 Y12.526 E1.02808
G1 X5.754 Y12.748 E1.10492
G1 X-5.711 Y12.8 E1.67692
G1 X-7.718 Y12.361 E1.77941
G1 X-9.504 Y11.361 E1.88153
G1 X-10.447 Y10.622 E1.94131
G1 X-11.528 Y9.276 E2.02743
G1 X-12.526 Y7.26 E2.13966
G1 X-12.748 Y5.754 E2.21561
G1 X-12.8 Y-5.615 E2.78282
G1 X-12.377 Y-7.679 E2.88793
G1 X-11.383 Y-9.45 E2.98925
G1 X-10.61 Y-10.448 E3.05223
G1 X-9.257 Y-11.54 E3.13897
G1 X-7.276 Y-12.526 E3.24937
G1 X-5.642 Y-12.756 E3.3317
G1 X5.615 Y-12.8 E3.89331
G1 X7.679 Y-12.377 E3.99843
G1 X9.45 Y-11.383 E4.09975
G1 X10.448 Y-10.61 E4.16273
G1 X11.54 Y-9.257 E4.24947
G1 X12.526 Y-7.276 E4.35987
G1 X12.756 Y-5.642 E4.44219
G0 F3600 X12.356 Y-5.64
G1 F1500 X12.4 Y5.575 E5.00172
G1 X11.997 Y7.539 E5.10174
G1 X11.067 Y9.205 E5.19693
G1 X10.322 Y10.167 E5.25764
G1 X9.04 Y11.201 E5.33981
G1 X7.158 Y12.139 E5.44472
G1 X5.696 Y12.352 E5.51843
G1 X-5.667 Y12.4 E6.08533
G1 X-7.576 Y11.982 E6.18283
G1 X-9.257 Y11.046 E6.27882
G1 X-10.163 Y10.336 E6.33625
G1 X-11.192 Y9.055 E6.41822
G1 X-12.139 Y7.142 E6.52472
G1 X-12.352 Y5.696 E6.59763
G1 X-12.4 Y-5.575 E7.15995
G1 X-11.997 Y-7.539 E7.25998
G1 X-11.067 Y-9.205 E7.35517
G1 X-10.322 Y-10.167 E7.41587
G1 X-9.04 Y-11.201 E7.49804
G1 X-7.157 Y-12.139 E7.603
G1 X-5.64 Y-12.356 E7.67945
G1 X5.575 Y-12.4 E8.23897
G1 X7.539 Y-11.997 E8.339
G1 X9.205 Y-11.067 E8.43419
G1 X10.167 Y-10.322 E8.49489
G1 X11.201 Y-9.04 E8.57706
G1 X12.139 Y-7.157 E8.68202
G1 X12.356 Y-5.64 E8.75847
G0 F3600 X11.956 Y-5.638
G1 F1500 X12 Y5.535 E9.3159
G1 X11.618 Y7.398 E9.41078
G1 X10.751 Y8.96 E9.49991
G1 X10.034 Y9.886 E9.55833
G1 X8.823 Y10.862 E9.63593
G1 X7.038 Y11.752 E9.73544
G1 X5.638 Y11.956 E9.80602
G1 X-5.623 Y12 E10.36784
G1 X-7.433 Y11.603 E10.46029
G1 X-9.01 Y10.731 E10.55019
G1 X-9.879 Y10.05 E10.60527
G1 X-10.856 Y8.834 E10.6831
G1 X-11.752 Y7.024 E10.78386
G1 X-11.956 Y5.638 E10.85375
G1 X-12 Y-5.535 E11.41118
G1 X-11.618 Y-7.398 E11.50606
G1 X-10.751 Y-8.96 E11.59518
G1 X-10.034 Y-9.886 E11.65361
G1 X-8.823 Y-10.862 E11.73121
G1 X-7.038 Y-11.752 E11.83072
G1 X-5.638 Y-11.956 E11.9013
G1 X5.535 Y-12 E12.45873
G1 X7.398 Y-11.618 E12.55361
G1 X8.96 Y-10.751 E12.64274
G1 X9.886 Y-10.034 E12.70117
G1 X10.862 Y-8.823 E12.77876
G1 X11.752 Y-7.038 E12.87827
G1 X11.956 Y-5.638 E12.94886
G0 F3600 X11.56 Y-5.58
G1 F1500 X11.6 Y5.495 E13.50139
G1 X11.238 Y7.257 E13.59114
G1 X10.401 Y8.766 E13.67723
G1 X9.749 Y9.602 E13.73012
G1 X8.603 Y10.525 E13.80353
G1 X6.918 Y11.365 E13.89746
G1 X5.58 Y11.56 E13.96492
G1 X-5.579 Y11.6 E14.52165
G1 X-7.291 Y11.224 E14.6091
G1 X-8.763 Y10.416 E14.69287
G1 X-9.595 Y9.764 E14.74561
G1 X-10.517 Y8.617 E14.81903
G1 X-11.365 Y6.903 E14.91443
G1 X-11.56 Y5.58 E14.98115
G1 X-11.6 Y-5.495 E15.53369
G1 X-11.238 Y-7.257 E15.62343
G1 X-10.401 Y-8.766 E15.70952
G1 X-9.749 Y-9.602 E15.76241
G1 X-8.603 Y-10.525 E15.83583
G1 X-6.918 Y-11.365 E15.92976
G1 X-5.58 Y-11.56 E15.99722
G1 X5.495 Y-11.6 E16.54975
G1 X7.257 Y-11.238 E16.6395
G1 X8.766 Y-10.401 E16.72559
G1 X9.602 Y-9.749 E16.77848
G1 X10.525 Y-8.603 E16.85189
G1 X11.365 Y-6.918 E16.94582
G1 X11.56 Y-5.58 E17.01328
G0 F3600 X11.164 Y-5.522
G1 F1500 X11.2 Y5.454 E17.56088
G1 X10.858 Y7.117 E17.64558
G1 X10.051 Y8.572 E17.72859
G1 X9.465 Y9.317 E17.77588
G1 X8.383 Y10.188 E17.84518
G1 X6.798 Y10.978 E17.93353
G1 X5.522 Y11.164 E17.99787
G1 X-5.535 Y11.2 E18.5495
G1 X-7.151 Y10.845 E18.63205
G1 X-8.516 Y10.101 E18.70961
G1 X-9.314 Y9.476 E18.76018
G1 X-10.179 Y8.399 E18.82909
G1 X-10.978 Y6.785 E18.91894
G1 X-11.164 Y5.522 E18.98263
G1 X-11.2 Y-5.454 E19.53023
G1 X-10.858 Y-7.117 E19.61494
G1 X-10.051 Y-8.572 E19.69794
G1 X-9.465 Y-9.317 E19.74523
G1 X-8.383 Y-10.188 E19.81453
G1 X-6.798 Y-10.978 E19.90288
G1 X-5.522 Y-11.164 E19.96722
G1 X5.454 Y-11.2 E20.51482
G1 X7.117 Y-10.858 E20.59952
G1 X8.572 Y-10.051 E20.68253
G1 X9.317 Y-9.465 E20.72982
G1 X10.188 Y-8.383 E20.79911
G1 X10.978 Y-6.798 E20.88747
G1 X11.164 Y-5.522 E20.9518
G0 F3600 X10.768 Y-5.464
G1 F1500 X10.8 Y5.413 E21.49446
G1 X10.478 Y6.977 E21.57412
G1 X9.701 Y8.378 E21.65405
G1 X9.18 Y9.032 E21.69577
G1 X8.165 Y9.849 E21.76077
G1 X6.677 Y10.591 E21.84372
G1 X5.464 Y10.768 E21.90488
G1 X-5.491 Y10.8 E22.45143
G1 X-7.011 Y10.466 E22.52907
G1 X-8.269 Y9.786 E22.60042
G1 X-9.03 Y9.19 E22.64864
G1 X-9.843 Y8.178 E22.71341
G1 X-10.591 Y6.667 E22.79752
G1 X-10.768 Y5.464 E22.85819
G1 X-10.8 Y-5.413 E23.40084
G1 X-10.478 Y-6.977 E23.48051
G1 X-9.701 Y-8.378 E23.56043
G1 X-9.18 Y-9.032 E23.60215
G1 X-8.165 Y-9.849 E23.66716
G1 X-6.677 Y-10.591 E23.75011
G1 X-5.464 Y-10.768 E23.81127
G1 X5.413 Y-10.8 E24.35393
G1 X6.977 Y-10.478 E24.43359
G1 X8.378 Y-9.701 E24.51352
G1 X9.032 Y-9.18 E24.55523
G1 X9.849 Y-8.165 E24.62024
G1 X10.591 Y-6.677 E24.70319
G1 X10.768 Y-5.464 E24.76435
G0 F3600 X10.372 Y-5.406
G1 F1500 X10.4 Y5.371 E25.30202
G1 X10.098 Y6.838 E25.37674
G1 X9.388 Y8.129 E25.45025
G1 X8.896 Y8.746 E25.48962
G1 X7.945 Y9.512 E25.55054
G1 X6.557 Y10.204 E25.62792
G1 X5.406 Y10.372 E25.68595
G1 X-5.447 Y10.4 E26.22741
G1 X-6.87 Y10.087 E26.3001
G1 X-8.022 Y9.471 E26.36528
G1 X-8.746 Y8.904 E26.41115
G1 X-9.507 Y7.957 E26.47176
G1 X-10.204 Y6.549 E26.55015
G1 X-10.372 Y5.406 E26.60778
G1 X-10.4 Y-5.371 E27.14545
G1 X-10.098 Y-6.838 E27.22018
G1 X-9.388 Y-8.129 E27.29368
G1 X-8.896 Y-8.746 E27.33305
G1 X-7.945 Y-9.512 E27.39397
G1 X-6.557 Y-10.204 E27.47135
G1 X-5.406 Y-10.372 E27.52938
G1 X5.371 Y-10.4 E28.06705
G1 X6.838 Y-10.098 E28.14178
G1 X8.129 Y-9.388 E28.21528
G1 X8.746 Y-8.896 E28.25465
G1 X9.512 Y-7.945 E28.31557
G1 X10.204 Y-6.557 E28.39295
G1 X10.372 Y-5.406 E28.45098
G0 F3600 X9.976 Y-5.348
G1 F1500 X10 Y5.329 E28.98366
G1 X9.718 Y6.7 E29.05349
G1 X9.075 Y7.88 E29.12054
G1 X8.61 Y8.463 E29.15774
G1 X7.729 Y9.173 E29.21419
G1 X6.437 Y9.817 E29.28621
G1 X5.348 Y9.976 E29.34112
G1 X-5.402 Y10 E29.87744
G1 X-6.73 Y9.708 E29.94528
G1 X-7.833 Y9.118 E30.00769
G1 X-8.461 Y8.619 E30.0477
G1 X-9.171 Y7.736 E30.10423
G1 X-9.817 Y6.431 E30.17688
G1 X-9.976 Y5.348 E30.23149
G1 X-10 Y-5.329 E30.76417
G1 X-9.718 Y-6.7 E30.834
G1 X-9.075 Y-7.88 E30.90104
G1 X-8.61 Y-8.463 E30.93825
G1 X-7.729 Y-9.173 E30.9947
G1 X-6.437 Y-9.817 E31.06672
G1 X-5.348 Y-9.976 E31.12162
G1 X5.329 Y-10 E31.6543
G1 X6.7 Y-9.718 E31.72414
G1 X7.88 Y-9.075 E31.79118
G1 X8.463 Y-8.61 E31.82838
G1 X9.173 Y-7.729 E31.88483
G1 X9.817 Y-6.437 E31.95686
G1 X9.976 Y-5.348 E32.01176
G0 F3600 X9.58 Y-5.29
G1 F1500 X9.6 Y5.287 E32.53945
G1 X9.338 Y6.562 E32.60439
G1 X8.762 Y7.631 E32.66497
G1 X8.326 Y8.178 E32.69987
G1 X7.509 Y8.836 E32.75221
G1 X6.317 Y9.43 E32.81865
G1 X5.29 Y9.58 E32.87043
G1 X-5.357 Y9.6 E33.40161
G1 X-6.59 Y9.329 E33.4646
G1 X-7.644 Y8.765 E33.52424
G1 X-8.175 Y8.336 E33.55829
G1 X-8.835 Y7.515 E33.61085
G1 X-9.43 Y6.313 E33.67776
G1 X-9.58 Y5.29 E33.72934
G1 X-9.6 Y-5.287 E34.25703
G1 X-9.338 Y-6.562 E34.32197
G1 X-8.762 Y-7.631 E34.38255
G1 X-8.326 Y-8.178 E34.41745
G1 X-7.509 Y-8.836 E34.46979
G1 X-6.317 Y-9.43 E34.53623
G1 X-5.29 Y-9.58 E34.58801
G1 X5.287 Y-9.6 E35.1157
G1 X6.562 Y-9.338 E35.18064
G1 X7.631 Y-8.762 E35.24122
G1 X8.178 Y-8.326 E35.27612
G1 X8.836 Y-7.509 E35.32846
G1 X9.43 Y-6.317 E35.3949
G1 X9.58 Y-5.29 E35.44668
G0 F3600 X9.184 Y-5.232
G1 F1500 X9.2 Y5.246 E35.96943
G1 X8.958 Y6.424 E36.02943
G1 X8.41 Y7.441 E36.08707
G1 X8.044 Y7.891 E36.11601
G1 X7.289 Y8.499 E36.16437
G1 X6.197 Y9.043 E36.22523
G1 X5.232 Y9.184 E36.27389
G1 X-5.312 Y9.2 E36.79993
G1 X-6.45 Y8.95 E36.85806
G1 X-7.422 Y8.43 E36.91306
G1 X-7.889 Y8.052 E36.94303
G1 X-8.499 Y7.294 E36.99157
G1 X-9.043 Y6.195 E37.05275
G1 X-9.184 Y5.232 E37.10131
G1 X-9.2 Y-5.246 E37.62406
G1 X-8.958 Y-6.424 E37.68406
G1 X-8.41 Y-7.441 E37.74169
G1 X-8.044 Y-7.891 E37.77063
G1 X-7.289 Y-8.499 E37.81899
G1 X-6.197 Y-9.043 E37.87986
G1 X-5.232 Y-9.184 E37.92851
G1 X5.246 Y-9.2 E38.45127
G1 X6.424 Y-8.958 E38.51126
G1 X7.441 Y-8.41 E38.5689
G1 X7.891 Y-8.044 E38.59784
G1 X8.499 Y-7.289 E38.6462
G1 X9.043 Y-6.197 E38.70707
G1 X9.184 Y-5.232 E38.75572
G0 F3600 X8.788 Y-5.174
G1 F1500 X8.8 Y5.205 E39.27353
G1 X8.578 Y6.286 E39.32859
G1 X8.095 Y7.194 E39.3799
G1 X7.793 Y7.579 E39.40431
G1 X7.069 Y8.162 E39.45069
G1 X6.077 Y8.656 E39.50597
G1 X5.174 Y8.788 E39.5515
G1 X-5.267 Y8.8 E40.07241
G1 X-6.31 Y8.571 E40.12568
G1 X-7.233 Y8.077 E40.17791
G1 X-7.602 Y7.77 E40.20186
G1 X-8.161 Y7.075 E40.24636
G1 X-8.656 Y6.076 E40.30198
G1 X-8.788 Y5.174 E40.34746
G1 X-8.8 Y-5.205 E40.86527
G1 X-8.578 Y-6.286 E40.92033
G1 X-8.095 Y-7.194 E40.97164
G1 X-7.793 Y-7.579 E40.99605
G1 X-7.069 Y-8.162 E41.04243
G1 X-6.077 Y-8.656 E41.09772
G1 X-5.174 Y-8.788 E41.14324
G1 X5.205 Y-8.8 E41.66106
G1 X6.286 Y-8.578 E41.71611
G1 X7.194 Y-8.095 E41.76742
G1 X7.579 Y-7.793 E41.79184
G1 X8.162 Y-7.069 E41.83821
G1 X8.656 Y-6.077 E41.8935
G1 X8.788 Y-5.174 E41.93903
G0 F3600 X8.392 Y-5.116
G1 F1500 X8.4 Y5.164 E42.4519
G1 X8.198 Y6.15 E42.50211
G1 X7.774 Y6.955 E42.54751
G1 X7.542 Y7.267 E42.5669
G1 X6.849 Y7.825 E42.61129
G1 X5.957 Y8.269 E42.661
G1 X5.116 Y8.392 E42.70341
G1 X-5.222 Y8.4 E43.21917
G1 X-6.17 Y8.192 E43.26759
G1 X-7.044 Y7.724 E43.31705
G1 X-7.29 Y7.519 E43.33303
G1 X-7.823 Y6.856 E43.37547
G1 X-8.269 Y5.957 E43.42554
G1 X-8.392 Y5.116 E43.46794
G1 X-8.4 Y-5.164 E43.98081
G1 X-8.198 Y-6.15 E44.03103
G1 X-7.774 Y-6.955 E44.07642
G1 X-7.542 Y-7.267 E44.09582
G1 X-6.849 Y-7.825 E44.1402
G1 X-5.957 Y-8.269 E44.18991
G1 X-5.116 Y-8.392 E44.23232
G1 X5.164 Y-8.4 E44.74519
G1 X6.15 Y-8.198 E44.7954
G1 X6.955 Y-7.774 E44.8408
G1 X7.267 Y-7.542 E44.86019
G1 X7.825 Y-6.849 E44.90458
G1 X8.269 Y-5.957 E44.95429
G1 X8.392 Y-5.116 E44.9967
G0 F3600 X7.996 Y-5.058
G1 F1500 X8 Y5.123 E45.50463
G1 X7.818 Y6.013 E45.54995
G1 X7.42 Y6.768 E45.59253
G1 X7.251 Y6.988 E45.60637
G1 X6.633 Y7.486 E45.64597
G1 X5.837 Y7.882 E45.69032
G1 X5.058 Y7.996 E45.7296
G1 X-5.177 Y8 E46.24023
G1 X-6.03 Y7.813 E46.28379
G1 X-6.855 Y7.371 E46.33049
G1 X-6.978 Y7.268 E46.33849
G1 X-7.485 Y6.637 E46.37888
G1 X-7.882 Y5.837 E46.42343
G1 X-7.996 Y5.058 E46.46271
G1 X-8 Y-5.123 E46.97064
G1 X-7.818 Y-6.013 E47.01596
G1 X-7.42 Y-6.768 E47.05854
G1 X-7.251 Y-6.988 E47.07238
G1 X-6.633 Y-7.486 E47.11198
G1 X-5.837 Y-7.882 E47.15634
G1 X-5.058 Y-7.996 E47.19562
G1 X5.123 Y-8 E47.70355
G1 X6.013 Y-7.818 E47.74887
G1 X6.768 Y-7.42 E47.79145
G1 X6.988 Y-7.251 E47.80529
G1 X7.486 Y-6.633 E47.84489
G1 X7.882 Y-5.837 E47.88924
G1 X7.996 Y-5.058 E47.92852
G0 F3600 X7.6 Y-5
G1 F1500 X7.6 Y5.082 E48.43151
G1 X7.437 Y5.878 E48.47205
G1 X7.066 Y6.582 E48.51175
G1 X6.963 Y6.707 E48.51983
G1 X6.417 Y7.147 E48.55482
G1 X5.717 Y7.495 E48.59382
G1 X5 Y7.6 E48.62997
G1 X-5.132 Y7.6 E49.13546
G1 X-5.89 Y7.434 E49.17417
G1 X-6.666 Y7.018 E49.2181
G1 X-7.146 Y6.42 E49.25635
G1 X-7.495 Y5.717 E49.29551
G1 X-7.6 Y5 E49.33166
G1 X-7.6 Y-5.082 E49.83466
G1 X-7.437 Y-5.878 E49.87519
G1 X-7.066 Y-6.582 E49.91489
G1 X-6.963 Y-6.707 E49.92298
G1 X-6.417 Y-7.147 E49.95796
G1 X-5.717 Y-7.495 E49.99696
G1 X-5 Y-7.6 E50.03311
G1 X5.082 Y-7.6 E50.53611
G1 X5.878 Y-7.437 E50.57664
G1 X6.582 Y-7.066 E50.61634
G1 X6.707 Y-6.963 E50.62443
G1 X7.147 Y-6.417 E50.65941
G1 X7.495 Y-5.717 E50.69841
G1 X7.6 Y-5 E50.73456
G0 F3600 X7.2 Y-5
G1 F1500 X7.2 Y5.041 E51.23551
G1 X7.056 Y5.743 E51.27126
G1 X6.712 Y6.396 E51.30808
G1 X6.201 Y6.808 E51.34083
G1 X5.595 Y7.109 E51.37459
G1 X5 Y7.2 E51.40462
G1 X-5.087 Y7.2 E51.90786
G1 X-5.753 Y7.054 E51.94188
G1 X-6.403 Y6.705 E51.97869
G1 X-6.808 Y6.201 E52.01094
G1 X-7.109 Y5.595 E52.0447
G1 X-7.2 Y5 E52.07473
G1 X-7.2 Y-5.041 E52.57568
G1 X-7.056 Y-5.743 E52.61143
G1 X-6.712 Y-6.396 E52.64825
G1 X-6.201 Y-6.808 E52.681
G1 X-5.595 Y-7.109 E52.71476
G1 X-5 Y-7.2 E52.74479
G1 X5.041 Y-7.2 E53.24574
G1 X5.743 Y-7.056 E53.28149
G1 X6.396 Y-6.712 E53.31831
G1 X6.808 Y-6.201 E53.35106
G1 X7.109 Y-5.595 E53.38482
G1 X7.2 Y-5 E53.41485
G0 F3600 X6.8 Y-5
G1 F1500 X6.8 Y5 E53.91375
G1 X6.676 Y5.606 E53.94461
G1 X6.395 Y6.138 E53.97462
G1 X6.023 Y6.45 E53.99885
G1 X5.474 Y6.723 E54.02944
G1 X5 Y6.8 E54.05339
G1 X-5.042 Y6.8 E54.55439
G1 X-5.616 Y6.674 E54.58371
G1 X-6.141 Y6.392 E54.61344
G1 X-6.45 Y6.023 E54.63745
G1 X-6.723 Y5.474 E54.66804
G1 X-6.8 Y5 E54.692
G1 X-6.8 Y-5 E55.1909
G1 X-6.676 Y-5.606 E55.22176
G1 X-6.395 Y-6.138 E55.25178
G1 X-6.023 Y-6.45 E55.276
G1 X-5.474 Y-6.723 E55.30659
G1 X-5 Y-6.8 E55.33055
G1 X5 Y-6.8 E55.82945
G1 X5.606 Y-6.676 E55.86031
G1 X6.138 Y-6.395 E55.89033
G1 X6.45 Y-6.023 E55.91455
G1 X6.723 Y-5.474 E55.94514
G1 X6.8 Y-5 E55.9691
G0 F3600 X6.4 Y-5
G1 F1500 X6.4 Y5 E56.468
G1 X6.322 Y5.419 E56.48926
G1 X6.077 Y5.883 E56.51544
G1 X5.845 Y6.092 E56.53102
G1 X5.351 Y6.338 E56.55855
G1 X5 Y6.4 E56.57633
G1 X-5.042 Y6.4 E57.07733
G1 X-5.523 Y6.285 E57.102
G1 X-5.883 Y6.077 E57.12275
G1 X-6.092 Y5.845 E57.13833
G1 X-6.338 Y5.351 E57.16586
G1 X-6.4 Y5 E57.18364
G1 X-6.4 Y-5 E57.68254
G1 X-6.322 Y-5.419 E57.70381
G1 X-6.077 Y-5.883 E57.72998
G1 X-5.845 Y-6.092 E57.74556
G1 X-5.351 Y-6.338 E57.7731
G1 X-5 Y-6.4 E57.79088
G1 X5 Y-6.4 E58.28978
G1 X5.419 Y-6.322 E58.31104
G1 X5.883 Y-6.077 E58.33722
G1 X6.092 Y-5.845 E58.3528
G1 X6.338 Y-5.351 E58.38033
G1 X6.4 Y-5 E58.39811
G0 F3600 X6 Y-5
G1 F1500 X5.946 Y-5.273 E58.412
G1 X5.74 Y-5.655 E58.43365
G1 X5.601 Y-5.793 E58.44342
G1 X5.338 Y-5.93 E58.45822
G1 X5 Y-6 E58.47544
G1 X-5 Y-6 E58.97434
G1 X-5.273 Y-5.946 E58.98822
G1 X-5.655 Y-5.74 E59.00988
G1 X-5.793 Y-5.601 E59.01965
G1 X-5.93 Y-5.338 E59.03444
G1 X-6 Y-5 E59.05166
G1 X-6 Y5 E59.55057
G1 X-5.946 Y5.273 E59.56445
G1 X-5.74 Y5.655 E59.5861
G1 X-5.601 Y5.793 E59.59588
G1 X-5.338 Y5.93 E59.61067
G1 X-5 Y6 E59.62789
G1 X5 Y6 E60.12679
G1 X5.273 Y5.946 E60.14068
G1 X5.655 Y5.74 E60.16233
G1 X5.793 Y5.601 E60.1721
G1 X5.93 Y5.338 E60.1869
G1 X6 Y5 E60.20412
G1 X6 Y-5 E60.70302
G0 F3600 X5.2 Y-5
G1 F1500 X5.2 Y5 E61.20192
G1 X5.161 Y5.119 E61.20817
G1 X5 Y5.2 E61.21716
G1 X-5 Y5.2 E61.71606
G1 X-5.119 Y5.161 E61.72231
G1 X-5.2 Y5 E61.7313
G1 X-5.2 Y-5 E62.2302
G1 X-5.161 Y-5.119 E62.23645
G1 X-5 Y-5.2 E62.24544
G1 X5 Y-5.2 E62.74434
G1 X5.119 Y-5.161 E62.75059
G1 X5.2 Y-5 E62.75958
G0 F3600 X5.557 Y-5.18
G1 F1500 X5.6 Y-5 E62.76882
G1 X5.6 Y5 E63.26772
G1 X5.541 Y5.244 E63.28024
G1 X5.45 Y5.396 E63.28908
G1 X5.18 Y5.557 E63.30476
G1 X5 Y5.6 E63.314
G1 X-5 Y5.6 E63.8129
G1 X-5.244 Y5.541 E63.82542
G1 X-5.396 Y5.45 E63.83426
G1 X-5.557 Y5.18 E63.84994
G1 X-5.6 Y5 E63.85918
G1 X-5.6 Y-5 E64.35808
G1 X-5.541 Y-5.244 E64.3706
G1 X-5.45 Y-5.396 E64.37944
G1 X-5.18 Y-5.557 E64.39513
G1 X-5 Y-5.6 E64.40436
G1 X5 Y-5.6 E64.90326
G1 X5.244 Y-5.541 E64.91578
